X: 7
T: La traditore my fa morire
M: 3/4
L: 1/8
B: The Orography of Thoinot Arbeau (Lengres, France, 1589)
F: http: //graner.net/nicolas/arbeau/orcheso.abc
R: gaillarde
N: for more information: http://graner.net/nicolas/arbeau/
Z: Nicolas Graner <arbeau@graner.name> Sep. 2001
K: F
| d2 d2 c2 B4 A2 | A2 G2 G2 F4 D2 | d2 d2 c2 B4 A2 | G2 G2 F2 G4 z2 ::
| A2 A2 A2 c4 c2 | c2 c2 c2 d4 d2 | d2 d2 c2 B4 A2 | G2 G2 F2 G4 z2 ::

